X:1
T:Title
%%score [ ( 1 2 ) ( 3 4 ) ]
L:1/8
Q:1/4=120
M:2/2
K:Eb
V:1 treble nm="MusicXML Part"
V:2 treble 
V:3 bass nm="MusicXML Part"
V:4 bass 
V:1
"^What Child is this?""^W. Chatterton Dix\n(1837-1898)" GA | B2 GA B2 EF | G2 EF G2 CD | %3
w: |||
 .E2 .F2 .G2 .A2 | B4 B2 Bc | d2 Bc d2 G"^Joseph Barnby\n(1838-1896)"=A |[M:2/2] B2 G=A B2 F2 | %7
w: ||||
 B2 d2 c2 B2 | (=AB c2- c4) | F6 FG | AB c2 =B2 c2 | d6 G2 | e2 e2 d2 c2 | Bc d2 =A2 A2 | %14
w: shep- herds watch are|keep­ * * *|ing? * *|||||
 B3 B c2 d2 | e2 E2 F2 ^F2 | GA B2 F4 | E6 || GA | B2 GA B2 EF | G2 EF G2 CD | .E2 .F2 .G2 .A2 | %22
w: ||||||||
 B4 B2 Bc | d2 Bc d2 G=A | B2 G=A B2 F2 | B2 d2 c2 B2 | (=AB c2- c4) | F6 FG | AB c2 =B2 c2 | %29
w: ||* * * * The|si- lent Word is|plead­ * * *|ing: * *||
 d6 G2 | e2 e2 d2 c2 | Bc d2 =A2 A2 | B3 B c2 d2 | e2 E2 F2 ^F2 | GA B2 F4 | E6 || GA | %37
w: ||||||||
 B2 GA B2 EF | G2 EF G2 CD | .E2 .F2 .G2 .A2 | B4 B2 Bc | d2 Bc d2 G=A | B2 G=A B2 F2 | %43
w: ||||||
 B2 d2 c2 B2 | (=AB c2- c4) | F6 FG | AB c2 =B2 c2 | d6 G2 | e2 e2 d2 c2 | Bc d2 =A2 A2 | %50
w: lov- ing hearts en-|throne * * *|him. * *|||||
 B3 B c2 d2 | e2 E2 F2 ^F2 | GA B2 F4 | E6 |] %54
w: ||||
V:2
 G2 | F2 G2 F2 E2 | D2 E2 D2 C2 | .B,2 .E2 .E2 .E2 | (E2 G2) F2 E2 | D2 E2 D2 C2 | %6
w: What|Child is this who,|laid to rest, On|Ma- ry's lap is|sleep­ * ing, Whom|an- gels greet with|
[M:2/2] D2 E2 D2 C2 | D2 =E2 F2 G2 | F2 FG (=A2 G2) | F6 FG | !courtesy!_A2 A2 A2 A2 | (A4 G2) G2 | %12
w: an- thems sweet, While|shep- herds, shep- herds|watch are * keep­ *|ing? This, *|this is Christ the|King * Whom|
 G2 G2 ^F2 =A2 | G2 G2 ^F2 F2 | G3 G !courtesy!_A2 A2 | G2 E2 E2 E2 | E2 B,C D4 | E6 || G2 | %19
w: shep- herds guard, and|an­ gels sing, Haste,|haste to bring him|laud, The Babe, the|Son of * Ma-|ry.|Why|
 F2 G2 F2 E2 | D2 E2 D2 C2 | .B,2 .E2 .E2 .E2 | (E2 G2) F2 E2 | D2 E2 D2 C2 | D2 E2 D2 C2 | %25
w: lies he in such|mean es­ tate, Where|ox and ass are|feed­ * ing? Good|Christ- ian, fear, for|sin- ners here The|
 D2 =E2 F2 G2 | F2 FG (=A2 G2) | F6 FG | !courtesy!_A2 A2 A2 A2 | (A4 G2) G2 | G2 G2 ^F2 =A2 | %31
w: si- lent, si- lent|Word is * plead­ *|ing: Nails, *|spear shall pierce him|through, * The|Cross be borne for|
 G2 G2 ^F2 F2 | G3 G !courtesy!_A2 A2 | G2 E2 E2 E2 | E2 B,C D4 | E6 || G2 | F2 G2 F2 E2 | %38
w: me and you; Hail,|hail the Word made|Flesh, The Babe, the|Son of * Ma-|ry.|So|bring him in- cense,|
 D2 E2 D2 C2 | .B,2 .E2 .E2 .E2 | (E2 G2) F2 E2 | D2 E2 D2 C2 | D2 E2 D2 C2 | D2 =E2 F2 G2 | %44
w: gold and myrrh, Come,|peas- ant king, to|own * him: The|King of kings sal­|va- tion brings, Let|lov- ing, lov- ing|
 F2 FG (=A2 G2) | F6 FG | !courtesy!_A2 A2 A2 A2 | (A4 G2) G2 | G2 G2 ^F2 =A2 | G2 G2 ^F2 F2 | %50
w: hearts en­ * throne *|him. Raise, *|raise the song on|high, * The|Vir- gin sings her|lul­ la- by; Joy,|
 G3 G _A2 A2 | G2 E2 E2 E2 | E2 B,C D4 | E6 |] %54
w: joy for Christ is|born, The Babe, the|Son of * Ma-|ry.|
V:3
 E2 | D2 E2 D2 C2 | B,2 C2 B,2 A,2 | .G,2 .A,2 .G,2 .F,2 | (G,2 B,2) A,2 G,2 | F,2 G,2 F,2 E,2 | %6
[M:2/2] F,2 G,2 F,2 E,2 | F,2 B,2 =A,2 D2 | C2 =A,B, (C2 B,2) | =A,6 F,G, | %10
 !courtesy!_A,B, C2 F2 E2 | D6 D2 | G,2 C2 =A,2 D2 | D2 D2 D2 D2 | D3 D E2 F2 | E2 G,2 A,2 =A,2 | %16
 B,2 G,2 A,4 | G,6 || E2 | D2 E2 D2 C2 | B,2 C2 B,2 A,2 | .G,2 .A,2 .G,2 .F,2 | (G,2 B,2) A,2 G,2 | %23
 F,2 G,2 F,2 E,2 | F,2 G,2 F,2 E,2 | F,2 B,2 =A,2 D2 | C2 =A,B, (C2 B,2) | =A,6 F,G, | %28
 !courtesy!_A,B, C2 F2 E2 | D6 D2 | G,2 C2 =A,2 D2 | D2 D2 D2 D2 | D3 D E2 F2 | E2 G,2 A,2 =A,2 | %34
 B,2 G,2 A,4 | G,6 || E2 | D2 E2 D2 C2 | B,2 C2 B,2 A,2 | .G,2 .A,2 .G,2 .F,2 | (G,2 B,2) A,2 G,2 | %41
 F,2 G,2 F,2 E,2 | F,2 G,2 F,2 E,2 | F,2 B,2 =A,2 D2 | C2 =A,B, (C2 B,2) | =A,6 F,G, | %46
 !courtesy!_A,B, C2 F2 E2 | D6 D2 | G,2 C2 =A,2 D2 | D2 D2 D2 D2 | D3 D E2 F2 | E2 G,2 A,2 =A,2 | %52
 B,2 G,2 A,4 | G,6 |] %54
V:4
 E,2 | E,2 E,2 E,2 E,2 | E,2 E,2 E,2 E,2 | .E,2 .E,2 .E,2 .E,2 | E,4 E,2 E,2 | %5
w: |||||
 B,,2 B,,2 B,,2 B,,2 |[M:2/2] B,,2 B,,2 B,,2 B,,2 | B,,2 G,,2 =A,,2 B,,2 | C,2 C,2 C,4 | F,6 F,G, | %10
w: |||||
 A,2 F,2 D,2 C,2 | =B,,6 B,,2 | C,2 C,2 D,2 ^F,2 | G,2 B,,C, D,2 D,2 | G,3 G, F,2 B,,2 | C,6 C,2 | %16
w: ||||haste to bring him|laud, the|
 B,,2 B,,2 B,,4 | E,6 || E,2 | E,2 E,2 E,2 E,2 | E,2 E,2 E,2 E,2 | .E,2 .E,2 .E,2 .E,2 | %22
w: ||||||
 E,4 E,2 E,2 | B,,2 B,,2 B,,2 B,,2 | B,,2 B,,2 B,,2 B,,2 | B,,2 G,,2 =A,,2 B,,2 | C,2 C,2 C,4 | %27
w: |||||
 F,6 F,G, | A,2 F,2 D,2 C,2 | =B,,6 B,,2 | C,2 C,2 D,2 ^F,2 | G,2 B,,C, D,2 D,2 | G,3 G, F,2 B,,2 | %33
w: |||||hail the Word made|
 C,6 C,2 | B,,2 B,,2 B,,4 | E,6 || E,2 | E,2 E,2 E,2 E,2 | E,2 E,2 E,2 E,2 | .E,2 .E,2 .E,2 .E,2 | %40
w: Flesh, the|||||||
 E,4 E,2 E,2 | B,,2 B,,2 B,,2 B,,2 | B,,2 B,,2 B,,2 B,,2 | B,,2 G,,2 =A,,2 B,,2 | C,2 C,2 C,4 | %45
w: |||||
 F,6 F,G, | A,2 F,2 D,2 C,2 | =B,,6 B,,2 | C,2 C,2 D,2 ^F,2 | G,2 B,,C, D,2 D,2 | G,3 G, F,2 B,,2 | %51
w: ||||||
 C,6 C,2 | B,,2 B,,2 B,,4 | E,,6 |] %54
w: born, the|Son of Ma-|ry.|

